X: 1
T: Alabama Jubilee #1
I: Alabama JubileeS-ACsquare
%C: S-A
M: C
Z: Transcribed to abc by Mary Lou Knack
R: square
K: C
^F G^G| "A"A=GEA- AG2E| AGEA- A4| "D"AA^FD AF2D| A^FDA- AGA^A|
        "G"B^AB=A- AG2G| B^ABG- G2G2| "C"cBcA- AG2E| cBcA- A^FG^G |
        "A"A=GEA- AG2E| AGEA- AGFE| "Dm"D^CDE FEFG| "F"A2FA- ABcd|
        "C"e4 e3d| "F"c2A2 "C"G2^FG| "D"AcAc "G"B2G2|\
        "C"c2"E"B2 "A"A2^FG| "D"AcAc "G"B2G2| "C"c4 z |]
